src/assets/dark/IconVotingInactive.svg

<svg width="44" height="44" viewBox="0 0 44 44" fill="none" xmlns="http://www.w3.org/2000/svg">
<g id="voting period inactive">
<g id="Group 63">
<path id="Oval Copy 8" fill-rule="evenodd" clip-rule="evenodd" d="M21.9688 43.1172C33.8429 43.1172 43.4688 33.4913 43.4688 21.6172C43.4688 9.74306 33.8429 0.117188 21.9688 0.117188C10.0946 0.117188 0.46875 9.74306 0.46875 21.6172C0.46875 33.4913 10.0946 43.1172 21.9688 43.1172Z" fill="url(#paint0_linear)"/>
<path id="Path" d="M18.844 27.6193C18.844 28.2998 19.4016 28.8577 20.0826 28.8577H26.5047L25.6808 32.7876C25.5813 33.2494 25.7236 33.7303 26.058 34.0623L27.0429 35.0483L33.1597 28.9316C33.4954 28.5969 33.7049 28.1339 33.7049 27.6193V19.5724C33.7049 18.5446 32.8754 17.7148 31.8476 17.7148H23.4878C22.7208 17.7148 22.0592 18.1792 21.779 18.8473L18.9744 25.3991C18.8939 25.6083 18.844 25.8314 18.844 26.0727V27.6207L18.844 27.6193Z" fill="#7465BD" fill-opacity="0.8"/>
<path id="Path_2" d="M24.7884 16.2298C24.7845 15.5447 24.2311 14.9914 23.5497 14.9914H17.1277L17.9516 11.0614C18.051 10.5996 17.9087 10.1187 17.5743 9.78676L16.5895 8.80078L10.4726 14.9175C10.1369 15.2522 9.92749 15.7166 9.92749 16.2298V24.2766C9.92749 25.3044 10.7569 26.1342 11.7848 26.1342H20.1445C20.9115 26.1342 21.5732 25.6698 21.8534 25.0018L24.658 18.4528C24.7384 18.2422 24.7884 18.0191 24.7884 17.7778V16.2298Z" fill="#BDBAD4"/>
</g>
</g>
<defs>
<linearGradient id="paint0_linear" x1="0.468751" y1="8.79327" x2="45.3151" y2="40.5232" gradientUnits="userSpaceOnUse">
<stop stop-color="#3B3381"/>
<stop offset="1" stop-color="#322773"/>
</linearGradient>
</defs>
</svg>

<svg width="44" height="44" fill="none" xmlns="http://www.w3.org/2000/svg"><path fill-rule="evenodd" clip-rule="evenodd" d="M21.969 43.117c11.874 0 21.5-9.626 21.5-21.5s-9.626-21.5-21.5-21.5-21.5 9.626-21.5 21.5 9.626 21.5 21.5 21.5z" fill="url(#paint0_linear)"/><path d="M18.844 27.62c0 .68.558 1.238 1.239 1.238h6.422l-.824 3.93c-.1.461.043.942.377 1.274l.985.986 6.117-6.116c.335-.335.545-.798.545-1.313v-8.047c0-1.027-.83-1.857-1.857-1.857h-8.36a1.85 1.85 0 00-1.709 1.132L18.974 25.4c-.08.21-.13.432-.13.674v1.548-.002z" fill="#7465BD" fill-opacity=".8"/><path d="M24.788 16.23a1.242 1.242 0 00-1.238-1.239h-6.422l.824-3.93c.099-.461-.043-.942-.378-1.274L16.59 8.8l-6.116 6.117c-.336.334-.546.799-.546 1.312v8.047c0 1.027.83 1.857 1.858 1.857h8.36c.767 0 1.428-.464 1.708-1.132l2.805-6.55c.08-.21.13-.433.13-.674V16.23z" fill="#BDBAD4"/><defs><linearGradient id="paint0_linear" x1=".469" y1="8.793" x2="45.315" y2="40.523" gradientUnits="userSpaceOnUse"><stop stop-color="#3B3381"/><stop offset="1" stop-color="#322773"/></linearGradient></defs></svg>
